svgs/thin/basketball-hoop.svg

<svg xmlns="http://www.w3.org/2000/svg" viewBox="0 0 640 512"><!--! Font Awesome Pro 6.3.0 by @fontawesome - https://fontawesome.com License - https://fontawesome.com/license (Commercial License) Copyright 2023 Fonticons, Inc. --><path d="M480 224V168c0-13.23-10.78-24-24-24h-272C170.8 144 160 154.8 160 168V224h16V168C176 163.6 179.6 160 184 160h272c4.406 0 8 3.594 8 8V224H480zM632.5 177.7C574 72.24 456.2 0 320 0S65.96 72.24 7.455 177.7C2.328 186.1 0 197.5 0 208.1v118c0 25.43 15.05 48.44 38.35 58.63l109.4 47.86L145.7 414.3l-100.9-44.15C27.29 362.5 16 345.2 16 326.1V208.1c0-8.373 1.883-16.19 5.447-22.62C79.43 80.94 193.8 16 320 16s240.6 64.94 298.6 169.5C622.1 191.9 624 199.7 624 208.1v118c0 19.07-11.29 36.33-28.76 43.97l-100.9 44.15l-2.074 18.37l109.4-47.86C624.9 374.6 640 351.6 640 326.1V208.1C640 197.5 637.7 186.1 632.5 177.7zM520 264C520 259.6 516.4 256 512 256H128C123.6 256 120 259.6 120 264S123.6 272 128 272h25.77l26.29 232.9c.3125 2.938 2.25 5.453 5 6.547c2.656 1.047 5.875 .5781 8.125-1.344l60.24-51.16l61.45 51.21C316.4 511.4 318.2 512 320 512s3.625-.625 5.125-1.859l61.45-51.21l60.24 51.16C448.3 511.3 450.1 512 452 512c1 0 1.999-.1875 2.938-.5625c2.75-1.094 4.688-3.609 5-6.547L486.2 272H512C516.4 272 520 268.4 520 264zM448.8 272l-52.85 44.88L342.1 272H448.8zM383.6 327.4L320 381.4l-63.58-53.1L320 274.4L383.6 327.4zM297.9 272L244 316.9L191.2 272H297.9zM180.9 369.5L170.2 275.2l61.36 52.11L180.9 369.5zM194.3 488.2l-9.783-86.72l56.48 47.07L194.3 488.2zM253.3 438L188.5 384l55.45-46.21l63.71 54.1L253.3 438zM320 493.6l-54.2-45.17L320 402.4l54.2 46.03L320 493.6zM332.3 391.9l63.71-54.1L451.5 384l-64.82 54.03L332.3 391.9zM445.8 488.2l-46.7-39.65l56.48-47.07L445.8 488.2zM459.1 369.5l-50.71-42.26l61.36-52.11L459.1 369.5z"/></svg>

<svg xmlns="http://www.w3.org/2000/svg" viewBox="0 0 640 512"><!-- Font Awesome Pro 6.0.0-alpha2 by @fontawesome - https://fontawesome.com License - https://fontawesome.com/license (Commercial License) --><path d="M480 224V168C480 154.766 469.219 144 456 144H184C170.781 144 160 154.766 160 168V224H176V168C176 163.594 179.594 160 184 160H456C460.406 160 464 163.594 464 168V224H480ZM632.545 177.723C574.035 72.236 456.188 0 320 0S65.965 72.236 7.455 177.723C2.328 186.967 0 197.531 0 208.102V326.143C0 351.57 15.053 374.586 38.348 384.777L147.738 432.637L145.664 414.264L44.76 370.117C27.289 362.475 16 345.213 16 326.143V208.102C16 199.729 17.883 191.908 21.447 185.484C79.432 80.941 193.832 16 320 16S560.568 80.941 618.553 185.484C622.117 191.908 624 199.729 624 208.102V326.143C624 345.213 612.711 362.475 595.24 370.117L494.336 414.264L492.262 432.637L601.652 384.777C624.947 374.586 640 351.57 640 326.143V208.102C640 197.531 637.672 186.967 632.545 177.723ZM520 264C520 259.578 516.406 256 512 256H128C123.594 256 120 259.578 120 264S123.594 272 128 272H153.768L180.062 504.891C180.375 507.828 182.312 510.344 185.062 511.437C187.719 512.484 190.938 512.016 193.187 510.094L253.426 458.934L314.875 510.141C316.375 511.375 318.188 512 320 512S323.625 511.375 325.125 510.141L386.574 458.934L446.812 510.094C448.281 511.344 450.125 512 452 512C453 512 453.999 511.812 454.938 511.438C457.688 510.344 459.625 507.828 459.938 504.891L486.232 272H512C516.406 272 520 268.422 520 264ZM448.799 272L395.953 316.883L342.094 272H448.799ZM383.578 327.393L320 381.391L256.422 327.393L320 274.406L383.578 327.393ZM297.906 272L244.047 316.883L191.201 272H297.906ZM180.865 369.535L170.219 275.172L231.574 327.277L180.865 369.535ZM194.25 488.188L184.467 401.467L240.947 448.535L194.25 488.188ZM253.324 438.025L188.5 384L243.949 337.787L307.656 391.891L253.324 438.025ZM320 493.594L265.801 448.424L320 402.391L374.199 448.424L320 493.594ZM332.344 391.891L396.051 337.787L451.5 384L386.676 438.025L332.344 391.891ZM445.75 488.188L399.053 448.535L455.533 401.467L445.75 488.188ZM459.135 369.535L408.426 327.277L469.781 275.172L459.135 369.535Z"/></svg>
